X:245
T: ES KUMMA SECHS BOLLACHA
N: Z0244
O: Europa, Mitteleuropa, Deutschland, Kuhlaendchen
N: Die letzten vier Takte werden zum Text fuenf mal wiederholt. 1 Strophe
R: Kinder - , Wiegen - Lied
M: 2/4
L: 1/16
K: G
G2 | d2d2e2e2 | d4B2
E2 | ddd2eee2 | d4B2
d2 | ddc2A2B2 | cBd2B4 |
d2c2A2B2 | c2d2B2

@@@ Tune index: 10003
